svg/arrow_top_left_bold_box.svg

<svg xmlns="http://www.w3.org/2000/svg" viewBox="0 0 24 24"><path d="M5 3h14c1.1 0 2 .9 2 2v14c0 1.1-.9 2-2 2H5c-1.1 0-2-.9-2-2V5c0-1.1.9-2 2-2m3.2 5v7.1l2.1-2.1 3.8 3.9L17 14l-3.8-3.9L15.3 8z"/></svg>

<svg xmlns="http://www.w3.org/2000/svg" id="mdi-arrow-top-left-bold-box" viewBox="0 0 24 24"><path d="M5 3H19C20.1 3 21 3.9 21 5V19C21 20.1 20.1 21 19 21H5C3.9 21 3 20.1 3 19V5C3 3.9 3.9 3 5 3M8.2 8V15.1L10.3 13L14.1 16.9L17 14L13.2 10.1L15.3 8H8.2Z" /></svg>
